**harm	**harte	**timestamp	**phrase	**leadinstrument	**kern
*M4/4	*M4/4	*	*	*	*
*C:	*C:	*	*	*	*C:
1r;	N	0	.	r	1r;
=1	=1	=1	=1	=1	=1
*>A_intro	*>A_intro	*>A_intro	*>A_intro	*>A_intro	*>A_intro
1I	C:maj	0.325	newline	trumpet	1C 1e 1g
=2	=2	=2	=2	=2	=2
1I	C:maj	1.884	.	trumpet	1C 1e 1g
=3	=3	=3	=3	=3	=3
1I	C:maj	3.443	.	trumpet	1C 1e 1g
=4	=4	=4	=4	=4	=4
1I	C:maj	5.001	.	trumpet	1C 1e 1g
=5	=5	=5	=5	=5	=5
*>B2_chorus	*>B2_chorus	*>B2_chorus	*>B2_chorus	*>B2_chorus	*>B2_chorus
1I	C:maj	6.56	newline	voice	1C 1e 1g
=6	=6	=6	=6	=6	=6
*M2/4	*M2/4	*M2/4	*M2/4	*M2/4	*M2/4
2r	N	8.1	.	voice	2r
=7	=7	=7	=7	=7	=7
*M4/4	*M4/4	*M4/4	*M4/4	*M4/4	*M4/4
1I	C:maj	8.87	newline	voice	1C 1e 1g
=8	=8	=8	=8	=8	=8
1IV	F:maj	10.059	.	voice	1F 1a 1cc
=9	=9	=9	=9	=9	=9
1IV	F:maj	11.248	.	voice	1F 1a 1cc
=10	=10	=10	=10	=10	=10
1I	C:maj	12.437	.	voice	1C 1e 1g
=11	=11	=11	=11	=11	=11
1I	C:maj	13.626	.	voice	1C 1e 1g
=12	=12	=12	=12	=12	=12
1IV	F:maj	14.815	newline	voice	1F 1a 1cc
=13	=13	=13	=13	=13	=13
2vi	A:min	16.31	.	voice	2A 2cc 2ee
2V	G:maj	17.058	.	voice	2G 2b 2dd
=14	=14	=14	=14	=14	=14
2IV	F:maj	17.805	.	voice	2F 2a 2cc
2I	C:maj	18.553	.	voice	2C 2e 2g
=15	=15	=15	=15	=15	=15
*>B_verse	*>B_verse	*>B_verse	*>B_verse	*>B_verse	*>B_verse
1I	C:maj	19.301	newline	voice	1C 1e 1g
=16	=16	=16	=16	=16	=16
1IV	F:maj	20.786	.	voice	1F 1a 1cc
=17	=17	=17	=17	=17	=17
1IV	F:maj	22.27	.	voice	1F 1a 1cc
=18	=18	=18	=18	=18	=18
1I	C:maj	23.755	.	voice	1C 1e 1g
=19	=19	=19	=19	=19	=19
1I	C:maj	25.24	.	voice	1C 1e 1g
=20	=20	=20	=20	=20	=20
1IV	F:maj	26.725	newline	voice	1F 1a 1cc
=21	=21	=21	=21	=21	=21
2vi	A:min	28.212	.	voice	2A 2cc 2ee
2V	G:maj	28.956	.	voice	2G 2b 2dd
=22	=22	=22	=22	=22	=22
2IV	F:maj	29.7	.	voice	2F 2a 2cc
2I	C:maj	30.443	.	voice	2C 2e 2g
=23	=23	=23	=23	=23	=23
1I	C:maj	31.187	newline	voice	1C 1e 1g
=24	=24	=24	=24	=24	=24
1IV	F:maj	32.701	.	voice	1F 1a 1cc
=25	=25	=25	=25	=25	=25
1IV	F:maj	34.214	.	voice	1F 1a 1cc
=26	=26	=26	=26	=26	=26
1I	C:maj	35.728	.	voice	1C 1e 1g
=27	=27	=27	=27	=27	=27
1I	C:maj	37.241	.	voice	1C 1e 1g
=28	=28	=28	=28	=28	=28
1IV	F:maj	38.755	newline	voice	1F 1a 1cc
=29	=29	=29	=29	=29	=29
2vi	A:min	40.258	.	voice	2A 2cc 2ee
2V	G:maj	41.009	.	voice	2G 2b 2dd
=30	=30	=30	=30	=30	=30
2IV	F:maj	41.761	.	voice	2F 2a 2cc
2I	C:maj	42.512	.	voice	2C 2e 2g
=31	=31	=31	=31	=31	=31
*>B_verse	*>B_verse	*>B_verse	*>B_verse	*>B_verse	*>B_verse
1I	C:maj	43.264	newline	voice	1C 1e 1g
=32	=32	=32	=32	=32	=32
1IV	F:maj	44.759	.	voice	1F 1a 1cc
=33	=33	=33	=33	=33	=33
1IV	F:maj	46.255	.	voice	1F 1a 1cc
=34	=34	=34	=34	=34	=34
1I	C:maj	47.75	.	voice	1C 1e 1g
=35	=35	=35	=35	=35	=35
1I	C:maj	49.245	.	voice	1C 1e 1g
=36	=36	=36	=36	=36	=36
1IV	F:maj	50.74	newline	voice	1F 1a 1cc
=37	=37	=37	=37	=37	=37
2vi	A:min	52.237	.	voice	2A 2cc 2ee
2V	G:maj	52.986	.	voice	2G 2b 2dd
=38	=38	=38	=38	=38	=38
2IV	F:maj	53.734	.	voice	2F 2a 2cc
2I	C:maj	54.482	.	voice	2C 2e 2g
=39	=39	=39	=39	=39	=39
1I	C:maj	55.231	newline	voice	1C 1e 1g
=40	=40	=40	=40	=40	=40
1IV	F:maj	56.719	.	voice	1F 1a 1cc
=41	=41	=41	=41	=41	=41
1IV	F:maj	58.207	.	voice	1F 1a 1cc
=42	=42	=42	=42	=42	=42
1I	C:maj	59.695	.	voice	1C 1e 1g
=43	=43	=43	=43	=43	=43
1I	C:maj	61.183	.	voice	1C 1e 1g
=44	=44	=44	=44	=44	=44
1IV	F:maj	62.671	newline	voice	1F 1a 1cc
=45	=45	=45	=45	=45	=45
2vi	A:min	64.179	.	voice	2A 2cc 2ee
2V	G:maj	64.933	.	voice	2G 2b 2dd
=46	=46	=46	=46	=46	=46
2IV	F:maj	65.688	.	voice	2F 2a 2cc
2I	C:maj	66.442	.	voice	2C 2e 2g
=47	=47	=47	=47	=47	=47
*>B3_verse	*>B3_verse	*>B3_verse	*>B3_verse	*>B3_verse	*>B3_verse
1I	C:maj	67.196	newline	voice	1C 1e 1g
=48	=48	=48	=48	=48	=48
1IV	F:maj	68.694	.	voice	1F 1a 1cc
=49	=49	=49	=49	=49	=49
1IV	F:maj	70.192	.	voice	1F 1a 1cc
=50	=50	=50	=50	=50	=50
1I	C:maj	71.691	.	voice	1C 1e 1g
=51	=51	=51	=51	=51	=51
1I	C:maj	73.189	.	voice	1C 1e 1g
=52	=52	=52	=52	=52	=52
1IV	F:maj	74.687	newline	voice	1F 1a 1cc
=53	=53	=53	=53	=53	=53
2vi	A:min	76.195	.	voice	2A 2cc 2ee
2V	G:maj	76.949	.	voice	2G 2b 2dd
=54	=54	=54	=54	=54	=54
2IV	F:maj	77.702	.	voice	2F 2a 2cc
2I	C:maj	78.456	.	voice	2C 2e 2g
=55	=55	=55	=55	=55	=55
*>C_instrumental	*>C_instrumental	*>C_instrumental	*>C_instrumental	*>C_instrumental	*>C_instrumental
1I	C:maj	79.21	newline	voice	1C 1e 1g
=56	=56	=56	=56	=56	=56
1I	C:maj	80.73	.	voice	1C 1e 1g
=57	=57	=57	=57	=57	=57
1I	C:maj	82.25	.	voice	1C 1e 1g
=58	=58	=58	=58	=58	=58
2IV	F:maj	83.769	.	voice	2F 2a 2cc
2I	C:maj	84.529	.	voice	2C 2e 2g
=59	=59	=59	=59	=59	=59
2IV	F:maj	85.289	.	voice	2F 2a 2cc
2I	C:maj	86.049	.	voice	2C 2e 2g
=60	=60	=60	=60	=60	=60
2IV	F:maj	86.809	.	voice	2F 2a 2cc
2I	C:maj	87.569	.	voice	2C 2e 2g
=61	=61	=61	=61	=61	=61
*>B4_verse	*>B4_verse	*>B4_verse	*>B4_verse	*>B4_verse	*>B4_verse
1r	N	88.329	newline	voice	1r
=62	=62	=62	=62	=62	=62
1IV	F:maj	89.82	.	voice	1F 1a 1cc
=63	=63	=63	=63	=63	=63
1IV	F:maj	91.311	.	voice	1F 1a 1cc
=64	=64	=64	=64	=64	=64
1I	C:maj	92.802	.	voice	1C 1e 1g
=65	=65	=65	=65	=65	=65
1I	C:maj	94.294	.	voice	1C 1e 1g
=66	=66	=66	=66	=66	=66
1IV	F:maj	95.785	newline	voice	1F 1a 1cc
=67	=67	=67	=67	=67	=67
2vi	A:min	97.283	.	voice	2A 2cc 2ee
2V	G:maj	98.031	.	voice	2G 2b 2dd
=68	=68	=68	=68	=68	=68
2IV	F:maj	98.78	.	voice	2F 2a 2cc
2I	C:maj	99.529	.	voice	2C 2e 2g
=69	=69	=69	=69	=69	=69
*>B5_chorus	*>B5_chorus	*>B5_chorus	*>B5_chorus	*>B5_chorus	*>B5_chorus
1I	C:maj	100.278	newline	voice	1C 1e 1g
=70	=70	=70	=70	=70	=70
1IV	F:maj	101.772	.	voice	1F 1a 1cc
=71	=71	=71	=71	=71	=71
1IV	F:maj	103.265	.	voice	1F 1a 1cc
=72	=72	=72	=72	=72	=72
1I	C:maj	104.759	.	voice	1C 1e 1g
=73	=73	=73	=73	=73	=73
1I	C:maj	106.253	.	voice	1C 1e 1g
=74	=74	=74	=74	=74	=74
1IV	F:maj	107.747	newline	voice	1F 1a 1cc
=75	=75	=75	=75	=75	=75
2vi	A:min	109.239	.	voice	2A 2cc 2ee
2V	G:maj	109.986	.	voice	2G 2b 2dd
=76	=76	=76	=76	=76	=76
2IV	F:maj	110.732	.	voice	2F 2a 2cc
2I	C:maj	111.479	.	voice	2C 2e 2g
=77	=77	=77	=77	=77	=77
*>D_outro	*>D_outro	*>D_outro	*>D_outro	*>D_outro	*>D_outro
1I	C:maj	112.225	newline	voice	1C 1e 1g
=78	=78	=78	=78	=78	=78
1I	C:maj	113.71	.	voice	1C 1e 1g
=79	=79	=79	=79	=79	=79
1I	C:maj	115.195	.	voice	1C 1e 1g
=80	=80	=80	=80	=80	=80
1I	C:maj	116.68	.	voice	1C 1e 1g
=81	=81	=81	=81	=81	=81
1I	C:maj	118.165	newline	voice	1C 1e 1g
=82	=82	=82	=82	=82	=82
1I	C:maj	119.664	.	voice	1C 1e 1g
=83	=83	=83	=83	=83	=83
1I	C:maj	121.162	.	voice	1C 1e 1g
=84	=84	=84	=84	=84	=84
1I	C:maj	122.66	.	voice	1C 1e 1g
=85	=85	=85	=85	=85	=85
1I	C:maj	124.159	newline	voice	1C 1e 1g
=86	=86	=86	=86	=86	=86
1I	C:maj	125.647	.	voice	1C 1e 1g
=87	=87	=87	=87	=87	=87
1I	C:maj	127.136	.	voice	1C 1e 1g
=88	=88	=88	=88	=88	=88
1I	C:maj	128.625	.	voice	1C 1e 1g
=89	=89	=89	=89	=89	=89
*>_fadeout	*>_fadeout	*>_fadeout	*>_fadeout	*>_fadeout	*>_fadeout
1I	C:maj	130.114	newline	voice	1C 1e 1g
=90	=90	=90	=90	=90	=90
1I	C:maj	131.604	.	voice	1C 1e 1g
=91	=91	=91	=91	=91	=91
1I	C:maj	133.094	.	voice	1C 1e 1g
=92	=92	=92	=92	=92	=92
1I	C:maj	134.583	.	voice	1C 1e 1g
1r;	N	137.377	.	r	1r;
1r;	N	143.076	.	r	1r;
*-	*-	*-	*-	*-	*-
!!!OTL: Sweet Soul Music
!!!COC: Arthur Conley
!!!BillboardChartDate: 1967/03/25
!!!BillboardPeak: 2
!!!BillboardWeeksOnChart: 15
!!!SampleTargetRank: 45
!!!SampleActualRank: 45
!!!SampleID#: 0965
!!!RDF**harmony: **recip + pitch class of root + harmonic quality
!!!RDF**harte: Chris Harte's syntax, used by MIREX
!!!RDF**phrase: newline = linebreak in original McGill transcription
!!!RDF**timestamp: McGill audio timestamp in seconds
!!!RDF**leadinstrument: original McGill primary instrumentation annotation
!!!RDT: 2017/01/12/
!!!ENC: Nathaniel Condit-Schultz
!!!EST: Awating manual error checking and editing.
